X: 20807
T: Johnny Spillane's Favourite
R: polka
M: 2/4
K: Dmajor
|:F/|Ad f/e/d/c/|dF A>d|cE GB|AD FG|
Ad f/e/d/c/|dF Ad|cB GE|ED D3/2:|
|:f|ad de/d/|cb b>^a|be ef/e/|da a>^g|
ad de/d/|cb b>^a|bg ec/d/|ed d3/2:|

